<?xml version="1.0" encoding="UTF-8"?>
<map version="1.10" tiledversion="1.12.1" orientation="orthogonal" renderorder="right-down" width="30" height="18" tilewidth="32" tileheight="32" infinite="0" nextlayerid="6" nextobjectid="102">
 <tileset firstgid="1" source="background.tsx"/>
 <layer id="1" name="Ground" width="30" height="18">
  <data encoding="csv">
3647,3648,3649,3650,3651,3652,3653,3654,3655,3656,3657,3658,3659,3660,3661,3662,3663,3664,3665,3666,3667,3668,3669,3670,3671,3672,3673,3674,3675,3676,
3748,3749,3750,3751,3752,3753,3754,3755,3756,3757,3758,3759,3760,3761,3762,3763,3764,3765,3766,3767,3768,3769,3770,3771,3772,3773,3774,3775,3776,3777,
3849,3850,3851,3852,3853,3854,3855,3856,3857,3858,3859,3860,3861,3862,3863,3864,3865,3866,3867,3868,3869,3870,3871,3872,3873,3874,3875,3876,3877,3878,
3950,3951,3952,3953,3954,3955,3956,3957,3958,3959,3960,3961,3962,3963,3964,3965,3966,3967,3968,3969,3970,3971,3972,3973,3974,3975,3976,3977,3978,3979,
4051,4052,4053,4054,4055,4056,4057,4058,4059,4060,4061,4062,4063,4064,4065,4066,4067,4068,4069,4070,4071,4072,4073,4074,4075,4076,4077,4078,4079,4080,
4152,4153,4154,4155,4156,4157,4158,4159,4160,4161,4162,4163,4164,4165,4166,4167,4168,4169,4170,4171,4172,4173,4174,4175,4176,4177,4178,4179,4180,4181,
4253,4254,4255,4256,4257,4258,4259,4260,4261,4262,4263,4264,4265,4266,4267,4268,4269,4270,4271,4272,4273,4274,4275,4276,4277,4278,4279,4280,4281,4282,
4354,4355,4356,4357,4358,4359,4360,4361,4362,4363,4364,4365,4366,4367,4368,4369,4370,4371,4372,4373,4374,4375,4376,4377,4378,4379,4380,4381,4382,4383,
4455,4456,4457,4458,4459,4460,4461,4462,4463,4464,4465,4466,4467,4468,4469,4470,4471,4472,4473,4474,4475,4476,4477,4478,4479,4480,4481,4482,4483,4484,
4556,4557,4558,4559,4560,4561,4562,4563,4564,4565,4566,4567,4568,4569,4570,4571,4572,4573,4574,4575,4576,4577,4578,4579,4580,4581,4582,4583,4584,4585,
4657,4658,4659,4660,4661,4662,4663,4664,4665,4666,4667,4668,4669,4670,4671,4672,4673,4674,4675,4676,4677,4678,4679,4680,4681,4682,4683,4684,4685,4686,
4758,4759,4760,4761,4762,4763,4764,4765,4766,4767,4768,4769,4770,4771,4772,4773,4774,4775,4776,4777,4778,4779,4780,4781,4782,4783,4784,4785,4786,4787,
4859,4860,4861,4862,4863,4864,4865,4866,4867,4868,4869,4870,4871,4872,4873,4874,4875,4876,4877,4878,4879,4880,4881,4882,4883,4884,4885,4886,4887,4888,
4960,4961,4962,4963,4964,4965,4966,4967,4968,4969,4970,4971,4972,4973,4974,4975,4976,4977,4978,4979,4980,4981,4982,4983,4984,4985,4986,4987,4988,4989,
5061,5062,5063,5064,5065,5066,5067,5068,5069,5070,5071,5072,5073,5074,5075,5076,5077,5078,5079,5080,5081,5082,5083,5084,5085,5086,5087,5088,5089,5090,
5162,5163,5164,5165,5166,5167,5168,5169,5170,5171,5172,5173,5174,5175,5176,5177,5178,5179,5180,5181,5182,5183,5184,5185,5186,5187,5188,5189,5190,5191,
5263,5264,5265,5266,5267,5268,5269,5270,5271,5272,5273,5274,5275,5276,5277,5278,5279,5280,5281,5282,5283,5284,5285,5286,5287,5288,5289,5290,5291,5292,
5364,5365,5366,5367,5368,5369,5370,5371,5372,5373,5374,5375,5376,5377,5378,5379,5380,5381,5382,5383,5384,5385,5386,5387,5388,5389,5390,5391,5392,5393
</data>
 </layer>
 <layer id="2" name="Walls" width="30" height="18" visible="0">
  <data encoding="csv">
3576,3577,3578,3579,3580,3581,3582,3583,3584,3585,3586,3587,3588,3589,3590,3591,3592,3593,0,0,0,0,0,0,0,0,0,0,0,0,
3677,3678,3679,3680,3681,3682,3683,3684,3685,3686,3687,3688,3689,3690,3691,3692,3693,3694,0,0,0,0,0,0,0,0,0,0,0,0,
3778,3779,3780,3781,3782,3783,3784,3785,3786,3787,3788,3789,3790,3791,3792,3793,3794,3795,0,0,0,0,0,0,0,0,0,0,0,0,
3879,3880,3881,3882,3883,3884,3885,3886,3887,3888,3889,3890,3891,3892,3893,3894,3895,3896,0,0,0,0,0,0,0,0,0,0,0,0,
3980,3981,3982,3983,3984,3985,3986,3987,3988,3989,3990,3991,3992,3993,3994,3995,3996,3997,0,0,0,0,0,0,0,0,0,0,0,0,
4081,4082,4083,4084,4085,4086,4087,4088,4089,4090,4091,4092,4093,4094,4095,4096,4097,4098,0,0,0,0,0,0,0,0,0,0,0,0,
4182,4183,4184,4185,4186,4187,4188,4189,4190,4191,4192,4193,4194,4195,4196,4197,4198,4199,0,0,0,0,0,0,0,0,0,0,0,0,
4283,4284,4285,4286,4287,4288,4289,4290,4291,4292,4293,4294,4295,4296,4297,4298,4299,4300,0,0,0,0,0,0,0,0,0,0,0,0,
4384,4385,4386,4387,4388,4389,4390,4391,4392,4393,4394,4395,4396,4397,4398,4399,4400,4401,0,0,0,0,0,0,0,0,0,0,0,0,
4485,4486,4487,4488,4489,4490,4491,4492,4493,4494,4495,4496,4497,4498,4499,4500,4501,4502,0,0,0,0,0,0,0,0,0,0,0,0,
4586,4587,4588,4589,4590,4591,4592,4593,4594,4595,4596,4597,4598,4599,4600,4601,4602,4603,0,0,0,0,0,0,0,0,0,0,0,0,
4687,4688,4689,4690,4691,4692,4693,4694,4695,4696,4697,4698,4699,4700,4701,4702,4703,4704,0,0,0,0,0,0,0,0,0,0,0,0,
4788,4789,4790,4791,4792,4793,4794,4795,4796,4797,4798,4799,4800,4801,4802,4803,4804,4805,0,0,0,0,0,0,0,0,0,0,0,0,
4889,4890,4891,4892,4893,4894,4895,4896,4897,4898,4899,4900,4901,4902,4903,4904,4905,4906,0,0,0,0,0,0,0,0,0,0,0,0,
4990,4991,4992,4993,4994,4995,4996,4997,4998,4999,5000,5001,5002,5003,5004,5005,5006,5007,0,0,0,0,0,0,0,0,0,0,0,0,
5091,5092,5093,5094,5095,5096,5097,5098,5099,5100,5101,5102,5103,5104,5105,5106,5107,5108,0,0,0,0,0,0,0,0,0,0,0,0,
5192,5193,5194,5195,5196,5197,5198,5199,5200,5201,5202,5203,5204,5205,5206,5207,5208,5209,0,0,0,0,0,0,0,0,0,0,0,0,
5293,5294,5295,5296,5297,5298,5299,5300,5301,5302,5303,5304,5305,5306,5307,5308,5309,5310,0,0,0,0,0,0,0,0,0,0,0,0
</data>
 </layer>
 <objectgroup id="4" name="objects">
  <object id="5" name="wall" x="51.1101" y="30.5308" height="513.066">
   <properties>
    <property name="hasCollision" type="bool" value="true"/>
   </properties>
  </object>
  <object id="6" name="wall" x="927.582" y="27.1106" height="511.443">
   <properties>
    <property name="hasCollision" type="bool" value="true"/>
   </properties>
  </object>
  <object id="8" name="wall" x="51.869" y="543.506" width="697.997">
   <properties>
    <property name="hasCollision" type="bool" value="true"/>
   </properties>
  </object>
  <object id="9" name="wall" x="52.2248" y="32.5757" width="425.488">
   <properties>
    <property name="hasCollision" type="bool" value="true"/>
   </properties>
  </object>
  <object id="11" name="wall" x="513.94" y="30.2518" width="410.103" height="0.363636">
   <properties>
    <property name="hasCollision" type="bool" value="true"/>
   </properties>
  </object>
  <object id="12" name="enemySpawn" x="603.313" y="156.75" width="32.1128" height="32.413">
   <properties>
    <property name="hasCollision" type="bool" value="false"/>
   </properties>
  </object>
  <object id="13" name="exit" x="480" y="16" width="32.7682" height="31.3435">
   <properties>
    <property name="hasCollision" type="bool" value="false"/>
   </properties>
  </object>
  <object id="14" name="chest" x="164.172" y="151.19" width="22.575" height="63.2174">
   <properties>
    <property name="isInteractable" type="bool" value="true"/>
   </properties>
  </object>
  <object id="15" name="centerFire" x="472.069" y="235.632" width="47.8927" height="49.8084">
   <properties>
    <property name="isInteractable" type="bool" value="true"/>
   </properties>
  </object>
  <object id="56" name="torch" x="395.733" y="288.531" width="32.3138" height="31.4284">
   <properties>
    <property name="hasCollision" type="bool" value="false"/>
    <property name="isCollectable" type="bool" value="true"/>
   </properties>
  </object>
  <object id="73" name="water" x="54.4535" y="277.454">
   <properties>
    <property name="hasCollision" type="bool" value="true"/>
   </properties>
   <polygon points="0,0 18.1512,0 23.3372,-3.88954 38.8954,-23.3372 38.8954,-20.7442 45.3779,-15.5581 58.3431,-15.5581 64.8256,-7.77907 70.0117,1.29651 89.4594,2.59302 92.0524,28.5233 110.204,37.5989 110.204,67.4186 120.576,103.721 110.204,110.204 115.39,121.872 121.872,132.244 121.872,141.32 111.5,141.32 92.0524,143.913 77.7907,154.285 70.0117,162.064 75.1977,164.657 68.7152,173.733 55.75,178.919 51.8605,197.07 35.0058,212.628 62.2326,212.628 75.1977,224.297 95.9419,224.297 95.9419,243.744 98.5349,242.448 116.686,251.523 116.686,260.599 121.872,263.192 127.058,264.489 -1.29651,264.489"/>
  </object>
  <object id="74" name="water" x="787.361" y="504.529">
   <properties>
    <property name="hasCollision" type="bool" value="true"/>
   </properties>
   <polygon points="0,0 -9.33489,0 -24.5041,0 -24.5041,10.3721 -24.5041,15.5581 -21.0035,16.8547 -17.5029,16.8547 -11.6686,16.8547 -3.50058,16.8547 5.83431,20.7442 12.8355,27.2268 25.6709,31.1163 49.0082,31.1163 68.8448,32.4128 81.6803,32.4128 88.6814,32.4128 103.851,32.4128 121.354,32.4128 133.022,23.3372 134.189,12.9651 134.189,-1.29651 124.854,-1.29651 124.854,-14.2616 126.021,-29.8198 126.021,-35.0058 130.688,-50.564 130.688,-67.4186 130.688,-85.5698 130.688,-103.721 133.022,-110.204 140.023,-137.43 140.023,-152.988 140.023,-156.878 137.69,-190.587 136.523,-202.256 134.189,-230.779 122.52,-239.855 116.686,-239.855 102.684,-239.855 98.0163,-233.372 81.6803,-233.372 63.0105,-233.372 61.8436,-229.483 45.5076,-230.779 37.3396,-230.779 12.8355,-219.111 18.6698,-211.332 11.6686,-210.035 -1.16686,-210.035 -11.6686,-206.145 -10.5018,-197.07 -8.16803,-197.07 -9.33489,-182.808 -18.6698,-182.808 -18.6698,-168.547 -12.8355,-168.547 -33.839,-154.285 -33.839,-127.058 -33.839,-123.169 -28.0047,-123.169 -26.8378,-112.797 -29.1715,-112.797 -35.0058,-110.204 -35.0058,-103.721 -15.1692,-103.721 -15.1692,-73.9012 -21.0035,-73.9012 -21.0035,-60.9361 -17.5029,-60.9361 -17.5029,-38.8954 -24.5041,-37.5989 -24.5041,-32.4128 -24.5041,-19.4477"/>
  </object>
  <object id="75" name="water" x="924.791" y="249.116">
   <properties>
    <property name="hasCollision" type="bool" value="true"/>
   </properties>
   <polygon points="0,0 -40.1919,0 -60.9361,0 -60.9361,-10.3721 -58.3431,-10.3721 -58.3431,-14.2616 -64.8256,-14.2616 -66.1221,-14.2616 -72.6047,-14.2616 -81.6803,-10.3721 -89.4594,-10.3721 -90.7559,-15.5581 -99.8315,-15.5581 -103.721,-16.8547 -110.204,-16.8547 -116.686,-15.5581 -123.169,-15.5581 -125.762,-19.4477 -143.913,-19.4477 -143.913,-28.5233 -143.913,-38.8954 -132.244,-49.2675 -137.43,-49.2675 -145.209,-62.2326 -145.209,-89.4594 -143.913,-89.4594 -142.616,-89.4594 -142.616,-106.314 -147.802,-106.314 -149.099,-127.058 -140.023,-128.355 -136.134,-143.913 -142.616,-146.506 -124.465,-146.506 -124.465,-158.175 -129.651,-158.175 -124.465,-168.547 -130.948,-171.14 -130.948,-194.477 -116.686,-194.477 -112.797,-211.332 -99.8315,-211.332 -92.0524,-199.663 -85.5698,-199.663 -82.9768,-203.552 -76.4942,-203.552 -67.4186,-203.552 -49.2675,-216.518 -35.0058,-216.518 -14.2616,-208.738 -3.88954,-208.738 -2.59302,-203.552 2.59302,-194.477"/>
  </object>
  <object id="76" name="playerSpawn" x="500.944" y="482.793" width="32.1128" height="32.413">
   <properties>
    <property name="hasCollision" type="bool" value="false"/>
   </properties>
  </object>
  <object id="101" name="water" x="53.7868" y="34.7366" rotation="90">
   <properties>
    <property name="hasCollision" type="bool" value="true"/>
   </properties>
   <polygon points="0,0 40.1919,0 60.9361,0 60.9361,-10.3721 58.3431,-10.3721 58.3431,-14.2616 64.8256,-14.2616 66.1221,-14.2616 72.6047,-14.2616 81.6803,-10.3721 89.4594,-10.3721 90.7559,-15.5581 99.8315,-15.5581 103.721,-16.8547 110.204,-16.8547 116.686,-15.5581 123.169,-15.5581 125.762,-19.4477 143.913,-19.4477 143.913,-28.5233 143.913,-38.8954 132.244,-49.2675 137.43,-49.2675 145.209,-62.2326 145.209,-89.4594 143.913,-89.4594 142.616,-89.4594 142.616,-106.314 147.802,-106.314 149.099,-127.058 140.023,-128.355 136.134,-143.913 142.616,-146.506 124.465,-146.506 124.465,-158.175 129.651,-158.175 124.465,-168.547 130.948,-171.14 130.948,-194.477 116.686,-194.477 112.797,-211.332 99.8315,-211.332 92.0524,-199.663 85.5698,-199.663 82.9768,-203.552 76.4942,-203.552 67.4186,-203.552 49.2675,-216.518 35.0058,-216.518 14.2616,-208.738 3.88954,-208.738 2.59302,-203.552 -2.59302,-194.477"/>
  </object>
 </objectgroup>
</map>
