<?xml version="1.0" encoding="UTF-8"?>
<map version="1.10" tiledversion="1.12.1" orientation="orthogonal" renderorder="right-down" width="25" height="18" tilewidth="32" tileheight="32" infinite="0" nextlayerid="5" nextobjectid="80">
 <tileset firstgid="1" source="background.tsx"/>
 <layer id="1" name="Ground" width="25" height="18">
  <data encoding="csv">
0,0,0,0,0,0,0,0,0,0,0,0,0,0,0,0,0,0,0,0,0,0,0,0,0,
0,0,0,0,0,0,0,0,0,0,0,0,0,0,0,0,0,0,0,0,0,0,0,0,0,
0,0,0,0,0,0,0,0,0,0,0,0,0,0,0,0,0,0,0,0,0,0,0,0,0,
0,0,0,0,0,0,0,0,0,0,0,0,0,0,0,0,0,0,0,0,0,0,0,0,0,
0,0,0,0,0,0,0,0,0,0,0,0,0,0,0,0,0,0,0,0,0,0,0,0,0,
0,0,0,0,0,0,0,0,0,0,0,0,0,0,0,0,0,0,0,0,0,0,0,0,0,
0,0,0,0,0,0,0,0,0,0,0,0,0,0,0,0,0,0,0,0,0,0,0,0,0,
0,0,0,0,0,0,0,0,0,0,0,0,0,0,0,0,0,0,0,0,0,0,0,0,0,
0,0,0,0,0,0,0,0,0,0,0,0,0,0,0,0,0,0,0,0,0,0,0,0,0,
0,0,0,0,0,0,0,0,0,0,0,0,0,0,0,0,0,0,0,0,0,0,0,0,0,
0,0,0,0,0,0,0,0,0,0,0,0,0,0,0,0,0,0,0,0,0,0,0,0,0,
0,0,0,0,0,0,0,0,0,0,0,0,0,0,0,0,0,0,0,0,0,0,0,0,0,
0,0,0,0,0,0,0,0,0,0,0,0,0,0,0,0,0,0,0,0,0,0,0,0,0,
0,0,0,0,0,0,0,0,0,0,0,0,0,0,0,0,0,0,0,0,0,0,0,0,0,
0,0,0,0,0,0,0,0,0,0,0,0,0,0,0,0,0,0,0,0,0,0,0,0,0,
0,0,0,0,0,0,0,0,0,0,0,0,0,0,0,0,0,0,0,0,0,0,0,0,0,
0,0,0,0,0,0,0,0,0,0,0,0,0,0,0,0,0,0,0,0,0,0,0,0,0,
0,0,0,0,0,0,0,0,0,0,0,0,0,0,0,0,0,0,0,0,0,0,0,0,0
</data>
 </layer>
 <layer id="2" name="Walls" width="25" height="18">
  <data encoding="csv">
0,0,0,0,0,0,0,0,0,0,0,0,0,0,0,0,0,0,0,0,0,0,0,0,0,
0,0,0,0,0,0,0,0,0,0,0,0,0,0,0,0,0,0,0,0,0,0,0,0,0,
0,0,0,0,0,0,0,0,0,0,0,0,0,0,0,0,0,0,0,0,0,0,0,0,0,
0,0,0,0,0,0,0,0,0,0,0,0,0,0,0,0,0,0,0,0,0,0,0,0,0,
0,0,0,0,0,0,0,0,0,0,0,0,0,0,0,0,0,0,0,0,0,0,0,0,0,
0,0,0,0,0,0,0,0,0,0,0,0,0,0,0,0,0,0,0,0,0,0,0,0,0,
0,0,0,0,0,0,0,0,0,0,0,0,0,0,0,0,0,0,0,0,0,0,0,0,0,
0,0,0,0,0,0,0,0,0,0,0,0,0,0,0,0,0,0,0,0,0,0,0,0,0,
0,0,0,0,0,0,0,0,0,0,0,0,0,0,0,0,0,0,0,0,0,0,0,0,0,
0,0,0,0,0,0,0,0,0,0,0,0,0,0,0,0,0,0,0,0,0,0,0,0,0,
0,0,0,0,0,0,0,0,0,0,0,0,0,0,0,0,0,0,0,0,0,0,0,0,0,
0,0,0,0,0,0,0,0,0,0,0,0,0,0,0,0,0,0,0,0,0,0,0,0,0,
0,0,0,0,0,0,0,0,0,0,0,0,0,0,0,0,0,0,0,0,0,0,0,0,0,
0,0,0,0,0,0,0,0,0,0,0,0,0,0,0,0,0,0,0,0,0,0,0,0,0,
0,0,0,0,0,0,0,0,0,0,0,0,0,0,0,0,0,0,0,0,0,0,0,0,0,
0,0,0,0,0,0,0,0,0,0,0,0,0,0,0,0,0,0,0,0,0,0,0,0,0,
0,0,0,0,0,0,0,0,0,0,0,0,0,0,0,0,0,0,0,0,0,0,0,0,0,
0,0,0,0,0,0,0,0,0,0,0,0,0,0,0,0,0,0,0,0,0,0,0,0,0
</data>
 </layer>
 <objectgroup id="4" name="objects">
  <object id="5" x="51.1101" y="30.5308" height="513.066"/>
  <object id="6" x="749.582" y="32.1106" height="511.443"/>
  <object id="8" x="51.869" y="543.506" width="697.997"/>
  <object id="9" x="52.2248" y="32.5757" width="329.488"/>
  <object id="11" x="418.243" y="31.4336" width="331.436"/>
  <object id="12" name="player_spawn" x="380.313" y="484.75" width="32.1128" height="32.413"/>
  <object id="13" name="exit" x="375.852" y="46.9669" width="32.7682" height="31.3435"/>
  <object id="14" name="chest" x="164.172" y="151.19" width="22.575" height="63.2174"/>
  <object id="15" name="center_fire" x="362.069" y="235.632" width="47.8927" height="49.8084"/>
  <object id="56" name="torch" x="285.733" y="288.531" width="32.3138" height="31.4284"/>
  <object id="73" name="water" x="54.4535" y="277.454">
   <polygon points="0,0 18.1512,0 23.3372,-3.88954 38.8954,-23.3372 38.8954,-20.7442 45.3779,-15.5581 58.3431,-15.5581 64.8256,-7.77907 70.0117,1.29651 89.4594,2.59302 92.0524,28.5233 110.204,37.5989 110.204,67.4186 120.576,103.721 110.204,110.204 115.39,121.872 121.872,132.244 121.872,141.32 111.5,141.32 92.0524,143.913 77.7907,154.285 70.0117,162.064 75.1977,164.657 68.7152,173.733 55.75,178.919 51.8605,197.07 35.0058,212.628 62.2326,212.628 75.1977,224.297 95.9419,224.297 95.9419,243.744 98.5349,242.448 116.686,251.523 116.686,260.599 121.872,263.192 127.058,264.489 -1.29651,264.489"/>
  </object>
  <object id="74" name="water" x="609.361" y="509.529">
   <polygon points="0,0 -9.33489,0 -24.5041,0 -24.5041,10.3721 -24.5041,15.5581 -21.0035,16.8547 -17.5029,16.8547 -11.6686,16.8547 -3.50058,16.8547 5.83431,20.7442 12.8355,27.2268 25.6709,31.1163 49.0082,31.1163 68.8448,32.4128 81.6803,32.4128 88.6814,32.4128 103.851,32.4128 121.354,32.4128 133.022,23.3372 134.189,12.9651 134.189,-1.29651 124.854,-1.29651 124.854,-14.2616 126.021,-29.8198 126.021,-35.0058 130.688,-50.564 130.688,-67.4186 130.688,-85.5698 130.688,-103.721 133.022,-110.204 140.023,-137.43 140.023,-152.988 140.023,-156.878 137.69,-190.587 136.523,-202.256 134.189,-230.779 122.52,-239.855 116.686,-239.855 102.684,-239.855 98.0163,-233.372 81.6803,-233.372 63.0105,-233.372 61.8436,-229.483 45.5076,-230.779 37.3396,-230.779 12.8355,-219.111 18.6698,-211.332 11.6686,-210.035 -1.16686,-210.035 -11.6686,-206.145 -10.5018,-197.07 -8.16803,-197.07 -9.33489,-182.808 -18.6698,-182.808 -18.6698,-168.547 -12.8355,-168.547 -33.839,-154.285 -33.839,-127.058 -33.839,-123.169 -28.0047,-123.169 -26.8378,-112.797 -29.1715,-112.797 -35.0058,-110.204 -35.0058,-103.721 -15.1692,-103.721 -15.1692,-73.9012 -21.0035,-73.9012 -21.0035,-60.9361 -17.5029,-60.9361 -17.5029,-38.8954 -24.5041,-37.5989 -24.5041,-32.4128 -24.5041,-19.4477"/>
  </object>
  <object id="75" name="water" x="746.791" y="254.116">
   <polygon points="0,0 -40.1919,0 -60.9361,0 -60.9361,-10.3721 -58.3431,-10.3721 -58.3431,-14.2616 -64.8256,-14.2616 -66.1221,-14.2616 -72.6047,-14.2616 -81.6803,-10.3721 -89.4594,-10.3721 -90.7559,-15.5581 -99.8315,-15.5581 -103.721,-16.8547 -110.204,-16.8547 -116.686,-15.5581 -123.169,-15.5581 -125.762,-19.4477 -143.913,-19.4477 -143.913,-28.5233 -143.913,-38.8954 -132.244,-49.2675 -137.43,-49.2675 -145.209,-62.2326 -145.209,-89.4594 -143.913,-89.4594 -142.616,-89.4594 -142.616,-106.314 -147.802,-106.314 -149.099,-127.058 -140.023,-128.355 -136.134,-143.913 -142.616,-146.506 -124.465,-146.506 -124.465,-158.175 -129.651,-158.175 -124.465,-168.547 -130.948,-171.14 -130.948,-194.477 -116.686,-194.477 -112.797,-211.332 -99.8315,-211.332 -92.0524,-199.663 -85.5698,-199.663 -82.9768,-203.552 -76.4942,-203.552 -67.4186,-203.552 -49.2675,-216.518 -35.0058,-216.518 -14.2616,-208.738 -3.88954,-208.738 -2.59302,-203.552 2.59302,-194.477"/>
  </object>
  <object id="76" gid="9" x="192.222" y="512.711" width="32" height="32.5484"/>
  <object id="77" gid="10" x="224.211" y="512.234" width="32" height="32"/>
  <object id="78" gid="13" x="192.43" y="543.83" width="32" height="32"/>
  <object id="79" gid="14" x="224.352" y="544.097" width="32" height="32"/>
 </objectgroup>
</map>
