<?xml version='1.0' encoding='UTF-8'?>
<map version="1.10" tiledversion="1.12.1" orientation="orthogonal" renderorder="right-down" width="30" height="18" tilewidth="32" tileheight="32" infinite="0" nextlayerid="6" nextobjectid="114">
 <tileset firstgid="1" source="background.tsx" />
 <layer id="1" name="Ground" width="30" height="18">
  <data encoding="csv">
 5393,5392,5391,5390,5389,5388,5387,5386,5385,5384,5383,5382,5381,5380,5379,5378,5377,5376,5375,5374,5373,5372,5371,5370,5369,5368,5367,5366,5365,5364
 5292,5291,5290,5289,5288,5287,5286,5285,5284,5283,5282,5281,5280,5279,5278,5277,5276,5275,5274,5273,5272,5271,5270,5269,5268,5267,5266,5265,5264,5263,
 5191,5190,5189,5188,5187,5186,5185,5184,5183,5182,5181,5180,5179,5178,5177,5176,5175,5174,5173,5172,5171,5170,5169,5168,5167,5166,5165,5164,5163,5162,
 5090,5089,5088,5087,5086,5085,5084,5083,5082,5081,5080,5079,5078,5077,5076,5075,5074,5073,5072,5071,5070,5069,5068,5067,5066,5065,5064,5063,5062,5061,
 4989,4988,4987,4986,4985,4984,4983,4982,4981,4980,4979,4978,4977,4976,4975,4974,4973,4972,4971,4970,4969,4968,4967,4966,4965,4964,4963,4962,4961,4960,
 4888,4887,4886,4885,4884,4883,4882,4881,4880,4879,4878,4877,4876,4875,4874,4873,4872,4871,4870,4869,4868,4867,4866,4865,4864,4863,4862,4861,4860,4859,
 4787,4786,4785,4784,4783,4782,4781,4780,4779,4778,4777,4776,4775,4774,4773,4772,4771,4770,4769,4768,4767,4766,4765,4764,4763,4762,4761,4760,4759,4758,
 4686,4685,4684,4683,4682,4681,4680,4679,4678,4677,4676,4675,4674,4673,4672,4671,4670,4669,4668,4667,4666,4665,4664,4663,4662,4661,4660,4659,4658,4657,
 4585,4584,4583,4582,4581,4580,4579,4578,4577,4576,4575,4574,4573,4572,4571,4570,4569,4568,4567,4566,4565,4564,4563,4562,4561,4560,4559,4558,4557,4556,
 4484,4483,4482,4481,4480,4479,4478,4477,4476,4475,4474,4473,4472,4471,4470,4469,4468,4467,4466,4465,4464,4463,4462,4461,4460,4459,4458,4457,4456,4455,
 4383,4382,4381,4380,4379,4378,4377,4376,4375,4374,4373,4372,4371,4370,4369,4368,4367,4366,4365,4364,4363,4362,4361,4360,4359,4358,4357,4356,4355,4354,
 4282,4281,4280,4279,4278,4277,4276,4275,4274,4273,4272,4271,4270,4269,4268,4267,4266,4265,4264,4263,4262,4261,4260,4259,4258,4257,4256,4255,4254,4253,
 4181,4180,4179,4178,4177,4176,4175,4174,4173,4172,4171,4170,4169,4168,4167,4166,4165,4164,4163,4162,4161,4160,4159,4158,4157,4156,4155,4154,4153,4152,
 4080,4079,4078,4077,4076,4075,4074,4073,4072,4071,4070,4069,4068,4067,4066,4065,4064,4063,4062,4061,4060,4059,4058,4057,4056,4055,4054,4053,4052,4051,
 3979,3978,3977,3976,3975,3974,3973,3972,3971,3970,3969,3968,3967,3966,3965,3964,3963,3962,3961,3960,3959,3958,3957,3956,3955,3954,3953,3952,3951,3950,
 3878,3877,3876,3875,3874,3873,3872,3871,3870,3869,3868,3867,3866,3865,3864,3863,3862,3861,3860,3859,3858,3857,3856,3855,3854,3853,3852,3851,3850,3849,
 3777,3776,3775,3774,3773,3772,3771,3770,3769,3768,3767,3766,3765,3764,3763,3762,3761,3760,3759,3758,3757,3756,3755,3754,3753,3752,3751,3750,3749,3748,
 3676,3675,3674,3673,3672,3671,3670,3669,3668,3667,3666,3665,3664,3663,3662,3661,3660,3659,3658,3657,3656,3655,3654,3653,3652,3651,3650,3649,3648,3647,
</data>
 </layer>
 <layer id="2" name="Walls" width="30" height="18" visible="0">
  <data encoding="csv">
 0,0,0,0,0,0,0,0,0,0,0,0,5310,5309,5308,5307,5306,5305,5304,5303,5302,5301,5300,5299,5298,5297,5296,5295,5294,5293
 0,0,0,0,0,0,0,0,0,0,0,0,5209,5208,5207,5206,5205,5204,5203,5202,5201,5200,5199,5198,5197,5196,5195,5194,5193,5192,
 0,0,0,0,0,0,0,0,0,0,0,0,5108,5107,5106,5105,5104,5103,5102,5101,5100,5099,5098,5097,5096,5095,5094,5093,5092,5091,
 0,0,0,0,0,0,0,0,0,0,0,0,5007,5006,5005,5004,5003,5002,5001,5000,4999,4998,4997,4996,4995,4994,4993,4992,4991,4990,
 0,0,0,0,0,0,0,0,0,0,0,0,4906,4905,4904,4903,4902,4901,4900,4899,4898,4897,4896,4895,4894,4893,4892,4891,4890,4889,
 0,0,0,0,0,0,0,0,0,0,0,0,4805,4804,4803,4802,4801,4800,4799,4798,4797,4796,4795,4794,4793,4792,4791,4790,4789,4788,
 0,0,0,0,0,0,0,0,0,0,0,0,4704,4703,4702,4701,4700,4699,4698,4697,4696,4695,4694,4693,4692,4691,4690,4689,4688,4687,
 0,0,0,0,0,0,0,0,0,0,0,0,4603,4602,4601,4600,4599,4598,4597,4596,4595,4594,4593,4592,4591,4590,4589,4588,4587,4586,
 0,0,0,0,0,0,0,0,0,0,0,0,4502,4501,4500,4499,4498,4497,4496,4495,4494,4493,4492,4491,4490,4489,4488,4487,4486,4485,
 0,0,0,0,0,0,0,0,0,0,0,0,4401,4400,4399,4398,4397,4396,4395,4394,4393,4392,4391,4390,4389,4388,4387,4386,4385,4384,
 0,0,0,0,0,0,0,0,0,0,0,0,4300,4299,4298,4297,4296,4295,4294,4293,4292,4291,4290,4289,4288,4287,4286,4285,4284,4283,
 0,0,0,0,0,0,0,0,0,0,0,0,4199,4198,4197,4196,4195,4194,4193,4192,4191,4190,4189,4188,4187,4186,4185,4184,4183,4182,
 0,0,0,0,0,0,0,0,0,0,0,0,4098,4097,4096,4095,4094,4093,4092,4091,4090,4089,4088,4087,4086,4085,4084,4083,4082,4081,
 0,0,0,0,0,0,0,0,0,0,0,0,3997,3996,3995,3994,3993,3992,3991,3990,3989,3988,3987,3986,3985,3984,3983,3982,3981,3980,
 0,0,0,0,0,0,0,0,0,0,0,0,3896,3895,3894,3893,3892,3891,3890,3889,3888,3887,3886,3885,3884,3883,3882,3881,3880,3879,
 0,0,0,0,0,0,0,0,0,0,0,0,3795,3794,3793,3792,3791,3790,3789,3788,3787,3786,3785,3784,3783,3782,3781,3780,3779,3778,
 0,0,0,0,0,0,0,0,0,0,0,0,3694,3693,3692,3691,3690,3689,3688,3687,3686,3685,3684,3683,3682,3681,3680,3679,3678,3677,
 0,0,0,0,0,0,0,0,0,0,0,0,3593,3592,3591,3590,3589,3588,3587,3586,3585,3584,3583,3582,3581,3580,3579,3578,3577,3576,
</data>
 </layer>
 <objectgroup id="4" name="objects">
  <object id="5" name="wall" x="0.1101" y="-0.0344174" height="575.652">
   <properties>
    <property name="hasCollision" type="bool" value="true" />
   </properties>
  </object>
  <object id="8" name="wall" x="0.133822" y="575.506" width="958.823">
   <properties>
    <property name="hasCollision" type="bool" value="true" />
   </properties>
  </object>
  <object id="9" name="wall" x="0.2248" y="0.5757" width="479.988">
   <properties>
    <property name="hasCollision" type="bool" value="true" />
   </properties>
  </object>
  <object id="12" name="enemySpawn" x="676.98" y="54.4167" width="32.1128" height="32.413">
   <properties>
    <property name="hasCollision" type="bool" value="false" />
   </properties>
  </object>
  <object id="13" name="exit" x="480" y="1" width="32.7682" height="31.3435">
   <properties>
    <property name="hasCollision" type="bool" value="false" />
   </properties>
  </object>
  <object id="14" name="chest" x="84.8387" y="254.19" width="22.575" height="63.2174">
   <properties>
    <property name="isInteractable" type="bool" value="true" />
   </properties>
  </object>
  <object id="15" name="centerFire" x="542" y="245.632" width="47.8927" height="49.8084">
   <properties>
    <property name="isInteractable" type="bool" value="true" />
   </properties>
  </object>
  <object id="56" name="torch" x="491.066" y="133.198" width="32.3138" height="31.4284">
   <properties>
    <property name="hasCollision" type="bool" value="false" />
    <property name="isCollectable" type="bool" value="true" />
   </properties>
  </object>
  <object id="76" name="playerSpawn" x="480" y="424.793" width="32.1128" height="32.413">
   <properties>
    <property name="hasCollision" type="bool" value="false" />
   </properties>
  </object>
  <object id="102" name="wall" x="514.006" y="1" width="445.488">
   <properties>
    <property name="hasCollision" type="bool" value="true" />
   </properties>
  </object>
  <object id="104" name="wall" x="960" y="1.174" height="575.652">
   <properties>
    <property name="hasCollision" type="bool" value="true" />
   </properties>
  </object>
  <object id="108" name="water" x="3" y="6" width="367" height="178" />
  <object id="112" name="water" x="959.018" y="2.97223" width="571" height="209.091" rotation="90" />
  <object id="113" name="water" x="4.5" y="395" width="367" height="178" />
 </objectgroup>
</map>
